src/dark/hiso font dark_26ED.svg

<svg xmlns="http://www.w3.org/2000/svg" width="126" height="126" viewBox="0 0 126 126"><path fill="#000101" d="M36 9v36l-36-18v72l36 18 72-36v-36l-72-36zm0 104.62l-9-4.49v-19.13l-18-9v19.14l-6-3v-65.29l33 16.48v65.29zm3-99.77l33 16.46v32.69l-33-16.5v-32.65zm7 84.65v-9l16-8 .03 9-16.03 8zm34-17l-16 8v-9l16-8v9zm18-9l-16 8v-9l16-8v9z"/></svg>

<svg xmlns="http://www.w3.org/2000/svg" width="126" height="126"><path fill="#000101" d="M36 9v36L0 27v72l36 18 72-36V45L36 9zm0 104.62l-9-4.49V90L9 81v19.14l-6-3V31.85l33 16.48v65.29zm3-99.77l33 16.46V63L39 46.5V13.85zm7 84.65v-9l16-8 .03 9-16.03 8zm34-17l-16 8v-9l16-8v9zm18-9l-16 8v-9l16-8v9z"/></svg>
